!!!OTL: Lass fragen sein
!!!ARE: Europa, Mitteleuropa, Deutschland
!!!SCT: A0483
!!!YEM: Copyright 1995, estate of Helmut Schaffrath.
**kern
*ICvox
*Ivox
*M4/4
*k[b-]
*F:
{4c
=1
4f
4f
4f
4g
=2
4a
4bn
2cc}
=3
{4.dd
8cc
4b-
4a
=4
2g
2a}
=5
{4cc
4b-
4a
4g
=6
4.a
8a
4g}
{4a
=7
4cc
4b-
4a
4g
=8
4.a
8a
4g}
{4a
=9
2b-
4r
4dd
=10
2cc
4r}
{4cc
=11
4cc
4a
4g
4f
=12
2g
2g
=13
2.f}
==
!!!AGN: Romanze, Ballade, Lied
!! M. Franck, Musikal. Convinium 1621 No. 23.
!!!ONB: ESAC (Essen Associative Code) Database: ALTDEU
!!!AMT: simple quadruple
!!!AIN: vox
!!!EED: Helmut Schaffrath
!!!EEV: 1.0
*-
